src/assets/icons/home.svg

<svg width="18" height="18" viewBox="0 0 18 18" fill="none" xmlns="http://www.w3.org/2000/svg">
<path d="M15.9398 17.75H12.0675C11.7165 17.75 11.3797 17.6111 11.1307 17.3636C10.8816 17.1162 10.7407 16.7802 10.7385 16.4292V11.1622H7.22722V16.4292C7.22505 16.7802 7.08407 17.1162 6.83507 17.3636C6.58606 17.6111 6.24925 17.75 5.89818 17.75H2.02593C1.62123 17.75 1.2331 17.5892 0.946934 17.3031C0.660767 17.0169 0.5 16.6288 0.5 16.2241V6.99465C0.500317 6.75707 0.556109 6.52284 0.662931 6.31062C0.769752 6.0984 0.924652 5.91405 1.11529 5.77227L8.15426 0.554571C8.41825 0.35686 8.73919 0.25 9.069 0.25C9.39882 0.25 9.71975 0.35686 9.98374 0.554571L16.8832 5.76406C17.0665 5.91176 17.2136 6.09945 17.3131 6.31275C17.4126 6.52605 17.462 6.75931 17.4575 6.99465V16.2241C17.4586 16.4241 17.4201 16.6223 17.3443 16.8074C17.2686 16.9925 17.1569 17.1608 17.0159 17.3026C16.8749 17.4444 16.7072 17.5569 16.5225 17.6337C16.3378 17.7105 16.1398 17.75 15.9398 17.75ZM12.1496 16.3553H15.9562C15.9896 16.3532 16.0209 16.3385 16.0438 16.3141C16.0666 16.2897 16.0793 16.2575 16.0793 16.2241V6.99465C16.08 6.97543 16.0758 6.95635 16.0672 6.93915C16.0586 6.92195 16.0458 6.90718 16.03 6.89621L9.11412 1.68671C9.09109 1.67119 9.06396 1.6629 9.03619 1.6629C9.00842 1.6629 8.98128 1.67119 8.95825 1.68671L1.92748 6.90441C1.91051 6.91673 1.89653 6.93271 1.88659 6.95117C1.87664 6.96964 1.87099 6.99011 1.87006 7.01106V16.2241C1.87006 16.2589 1.88389 16.2923 1.9085 16.3169C1.93312 16.3415 1.96651 16.3553 2.00132 16.3553H5.80794V11.0228C5.81009 10.6905 5.94303 10.3725 6.17796 10.1376C6.41289 9.90267 6.73091 9.76973 7.06314 9.76758H10.878C11.0439 9.7665 11.2084 9.79811 11.3621 9.8606C11.5158 9.9231 11.6557 10.0153 11.7737 10.1318C11.8918 10.2484 11.9858 10.387 12.0503 10.5399C12.1148 10.6928 12.1485 10.8569 12.1496 11.0228V16.3553Z" fill="white"/>
</svg>

<svg xmlns="http://www.w3.org/2000/svg" width="18" height="18" fill="#fff"><path d="M15.94 17.75h-3.872a1.329 1.329 0 0 1-1.33-1.32v-5.268h-3.51v5.267a1.329 1.329 0 0 1-1.33 1.321H2.026A1.526 1.526 0 0 1 .5 16.224v-9.23a1.526 1.526 0 0 1 .615-1.222L8.155.555a1.526 1.526 0 0 1 1.829 0l6.9 5.21a1.542 1.542 0 0 1 .573 1.23v9.23a1.517 1.517 0 0 1-1.517 1.525Zm-3.79-1.395h3.806a.131.131 0 0 0 .123-.13v-9.23a.115.115 0 0 0-.049-.099l-6.916-5.21a.14.14 0 0 0-.156 0l-7.03 5.218a.14.14 0 0 0-.058.107v9.213a.131.131 0 0 0 .131.131h3.807v-5.332a1.263 1.263 0 0 1 1.255-1.255h3.815a1.264 1.264 0 0 1 1.272 1.255v5.332Z"/></svg>
